Numix/64/emotes/face-cool.svg

<?xml version="1.0" encoding="UTF-8" standalone="no"?>
<svg
   xmlns:dc="http://purl.org/dc/elements/1.1/"
   xmlns:cc="http://creativecommons.org/ns#"
   xmlns:rdf="http://www.w3.org/1999/02/22-rdf-syntax-ns#"
   xmlns:svg="http://www.w3.org/2000/svg"
   xmlns="http://www.w3.org/2000/svg"
   xmlns:sodipodi="http://sodipodi.sourceforge.net/DTD/sodipodi-0.dtd"
   xmlns:inkscape="http://www.inkscape.org/namespaces/inkscape"
   width="64px"
   height="64px"
   viewBox="0 0 48 48"
   version="1.1"
   id="svg399"
   inkscape:version="0.91 r"
   sodipodi:docname="face-cool.svg">
  <metadata
     id="metadata412">
    <rdf:RDF>
      <cc:Work
         rdf:about="">
        <dc:format>image/svg+xml</dc:format>
        <dc:type
           rdf:resource="http://purl.org/dc/dcmitype/StillImage" />
      </cc:Work>
    </rdf:RDF>
  </metadata>
  <defs
     id="defs410" />
  <sodipodi:namedview
     pagecolor="#ffffff"
     bordercolor="#666666"
     borderopacity="1"
     objecttolerance="10"
     gridtolerance="10"
     guidetolerance="10"
     inkscape:pageopacity="0"
     inkscape:pageshadow="2"
     inkscape:window-width="640"
     inkscape:window-height="480"
     id="namedview408" />
  <g
     id="surface1">
    <path
       style=" stroke:none;fill-rule:nonzero;fill:rgb(100%,85.490196%,36.862745%);fill-opacity:1;"
       d="M 42 24 C 42 32.5625 33.941406 39.5 24 39.5 C 14.058594 39.5 6 32.5625 6 24 C 6 15.441406 14.058594 8.5 24 8.5 C 33.941406 8.5 42 15.441406 42 24 Z M 42 24 "
       id="path402" />
    <path
       style=" stroke:none;fill-rule:nonzero;fill:rgb(39.607843%,39.607843%,39.607843%);fill-opacity:1;"
       d="M 29.933594 28 C 29.507812 29.71875 26.980469 30.996094 24 31 L 24 33 C 27.414062 32.996094 30.324219 30.882812 30.894531 28 Z M 29.933594 28 "
       id="path404" />
    <path
       style=" stroke:none;fill-rule:nonzero;fill:rgb(1.176471%,19.607843%,26.27451%);fill-opacity:1;"
       d="M 16.152344 15.824219 C 15.125 15.828125 14.46875 15.894531 14.460938 15.894531 C 14.4375 15.898438 12.160156 16.097656 10.964844 17.140625 C 10.242188 17.773438 10.136719 18.714844 10.128906 18.753906 C 10.128906 18.757812 10.050781 19.3125 10.078125 20.5 C 10.105469 22.023438 10.738281 23.125 10.894531 23.316406 C 10.914062 23.34375 10.933594 23.371094 10.960938 23.40625 C 11.316406 23.878906 12.394531 25.316406 16.144531 25.316406 C 19.488281 25.316406 20.550781 23.96875 20.613281 23.882812 C 20.675781 23.816406 21.984375 22.371094 22.410156 20 L 25.589844 20 C 26.015625 22.371094 27.324219 23.816406 27.386719 23.882812 C 27.449219 23.96875 28.511719 25.316406 31.855469 25.316406 C 35.605469 25.316406 36.683594 23.878906 37.039062 23.40625 C 37.066406 23.371094 37.085938 23.34375 37.105469 23.316406 C 37.261719 23.125 37.894531 22.023438 37.921875 20.5 C 37.949219 19.3125 37.871094 18.757812 37.871094 18.753906 C 37.863281 18.714844 37.757812 17.773438 37.035156 17.140625 C 35.839844 16.097656 33.5625 15.898438 33.539062 15.894531 C 33.53125 15.894531 32.875 15.828125 31.847656 15.824219 L 31.707031 15.824219 C 31.484375 15.824219 30.378906 15.835938 29.183594 15.972656 C 29.039062 15.992188 28.898438 16.011719 28.761719 16.03125 L 28.203125 16.121094 C 27.210938 16.300781 26.511719 16.558594 26.121094 16.886719 C 25.636719 17.285156 25.539062 17.828125 25.515625 18 L 22.484375 18 C 22.460938 17.828125 22.363281 17.285156 21.878906 16.886719 C 21.488281 16.558594 20.789062 16.300781 19.796875 16.121094 L 19.238281 16.03125 C 19.101562 16.011719 18.960938 15.992188 18.816406 15.972656 C 17.621094 15.835938 16.515625 15.824219 16.292969 15.824219 Z M 16.152344 15.824219 "
       id="path406" />
  </g>
</svg>

<svg xmlns="http://www.w3.org/2000/svg" width="64" height="64" viewBox="0 0 48 48">
 <g>
  <path d="m 42 24 c 0 8.563 -8.06 15.5 -18 15.5 c -9.941 0 -18 -6.938 -18 -15.5 c 0 -8.559 8.06 -15.5 18 -15.5 c 9.941 0 18 6.941 18 15.5 m 0 0" style="fill:#ffd95d;fill-opacity:1;stroke:none;fill-rule:nonzero"/>
  <path d="m 29.934 28 c -0.426 1.719 -2.953 2.996 -5.934 3 l 0 2 c 3.414 -0.004 6.324 -2.117 6.895 -5 m -0.961 0" style="fill:#646464;fill-opacity:1;stroke:none;fill-rule:nonzero"/>
  <path d="m 16.15 15.824 c -1.027 0.004 -1.684 0.07 -1.691 0.07 c -0.023 0.004 -2.301 0.203 -3.496 1.246 c -0.723 0.633 -0.828 1.574 -0.836 1.613 c 0 0.004 -0.078 0.559 -0.051 1.746 c 0.027 1.523 0.66 2.625 0.816 2.816 c 0.02 0.027 0.039 0.055 0.066 0.09 c 0.355 0.473 1.434 1.91 5.184 1.91 c 3.344 0 4.406 -1.348 4.469 -1.434 c 0.063 -0.066 1.371 -1.512 1.797 -3.883 l 3.18 0 c 0.426 2.371 1.734 3.816 1.797 3.883 c 0.063 0.086 1.125 1.434 4.469 1.434 c 3.75 0 4.828 -1.438 5.184 -1.91 c 0.027 -0.035 0.047 -0.063 0.066 -0.09 c 0.156 -0.191 0.789 -1.293 0.816 -2.816 c 0.027 -1.188 -0.051 -1.742 -0.051 -1.746 c -0.008 -0.039 -0.113 -0.98 -0.836 -1.613 c -1.195 -1.043 -3.473 -1.242 -3.496 -1.246 c -0.008 0 -0.664 -0.066 -1.691 -0.07 l -0.141 0 c -0.223 0 -1.328 0.012 -2.523 0.148 c -0.145 0.02 -0.285 0.039 -0.422 0.059 l -0.559 0.09 c -0.992 0.18 -1.691 0.438 -2.082 0.766 c -0.484 0.398 -0.582 0.941 -0.605 1.113 l -3.03 0 c -0.023 -0.172 -0.121 -0.715 -0.605 -1.113 c -0.391 -0.328 -1.09 -0.586 -2.082 -0.766 l -0.559 -0.09 c -0.137 -0.02 -0.277 -0.039 -0.422 -0.059 c -1.195 -0.137 -2.301 -0.148 -2.523 -0.148 m -0.141 0" style="fill:#033143;fill-opacity:1;stroke:none;fill-rule:nonzero"/>
 </g>
</svg>
